assets/web/icons/settings.svg

<svg width="24" height="24" viewBox="0 0 24 24" fill="none" xmlns="http://www.w3.org/2000/svg">
<path d="M16 12C16 14.2091 14.2091 16 12 16C9.79087 16 8.00001 14.2091 8.00001 12C8.00001 9.79086 9.79087 8 12 8C14.2091 8 16 9.79086 16 12ZM14 12C14 10.8954 13.1046 10 12 10C10.8954 10 10 10.8954 10 12C10 13.1046 10.8954 14 12 14C13.1046 14 14 13.1046 14 12Z" fill="currentColor"/>
<path d="M11.3117 2H12.6883C13.965 2 15 3.03498 15 4.3117V4.55876L15.0022 4.56194C15.012 4.57553 15.0334 4.59534 15.0657 4.60873C15.0966 4.62157 15.1223 4.62191 15.1353 4.61979L15.1381 4.61925L15.3151 4.44225C16.2179 3.53947 17.6816 3.53947 18.5844 4.44225L19.5578 5.41561C20.4605 6.3184 20.4605 7.78211 19.5578 8.68489L19.3808 8.86189L19.3802 8.86474C19.3781 8.87772 19.3784 8.9034 19.3913 8.93432C19.4047 8.96656 19.4245 8.98796 19.4381 8.99782L19.4412 9H19.6883C20.965 9 22 10.035 22 11.3117V12.6883C22 13.965 20.965 15 19.6883 15H19.4412L19.4381 15.0022C19.4245 15.012 19.4047 15.0334 19.3913 15.0657C19.3784 15.0966 19.3781 15.1223 19.3802 15.1352L19.3808 15.1381L19.5578 15.3151C20.4605 16.2179 20.4605 17.6816 19.5578 18.5844L18.5844 19.5577C17.6816 20.4605 16.2179 20.4605 15.3151 19.5577L15.1381 19.3807L15.1353 19.3802C15.1223 19.3781 15.0966 19.3784 15.0657 19.3913C15.0335 19.4047 15.012 19.4245 15.0022 19.4381L15 19.4412V19.6883C15 20.965 13.965 22 12.6883 22H11.3117C10.035 22 9 20.965 9 19.6883V19.4412L8.99783 19.4381C8.98796 19.4245 8.96656 19.4047 8.93432 19.3913C8.9034 19.3784 8.87773 19.3781 8.86475 19.3802L8.8619 19.3807L8.6849 19.5577C7.78211 20.4605 6.3184 20.4605 5.41562 19.5577L4.44226 18.5844C3.53947 17.6816 3.53947 16.2179 4.44226 15.3151L4.61926 15.1381L4.6198 15.1353C4.62191 15.1223 4.62157 15.0966 4.60873 15.0657C4.59535 15.0334 4.57554 15.012 4.56195 15.0022L4.55877 15H4.3117C3.03498 15 2 13.965 2 12.6883V11.3117C2 10.035 3.03498 9 4.3117 9H4.55876L4.56195 8.99782C4.57554 8.98796 4.59535 8.96655 4.60874 8.93431C4.62158 8.90339 4.62192 8.87771 4.6198 8.86472L4.61926 8.86187L4.44226 8.68487C3.53947 7.78208 3.53947 6.31837 4.44226 5.41559L5.41561 4.44224C6.3184 3.53945 7.78211 3.53945 8.68491 4.44224L8.86192 4.61925L8.86476 4.61979C8.87774 4.6219 8.90341 4.62156 8.93433 4.60873C8.96657 4.59534 8.98797 4.57553 8.99783 4.56194L9 4.55877V4.3117C9 3.03498 10.035 2 11.3117 2ZM11 4.3117V4.56877C11 5.46192 10.4097 6.16172 9.70122 6.45585C8.98451 6.75342 8.07949 6.66525 7.45258 6.03834L7.27069 5.85645C7.14895 5.73471 6.95157 5.73471 6.82982 5.85645L5.85647 6.8298C5.73473 6.95154 5.73473 7.14892 5.85647 7.27066L6.03835 7.45253C6.66527 8.07945 6.75343 8.98448 6.45586 9.7012C6.16173 10.4097 5.46192 11 4.56876 11H4.3117C4.13955 11 4 11.1396 4 11.3117V12.6883C4 12.8604 4.13955 13 4.3117 13H4.56877C5.46192 13 6.16173 13.5903 6.45586 14.2988C6.75343 15.0155 6.66526 15.9205 6.03834 16.5474L5.85647 16.7293C5.73473 16.8511 5.73473 17.0484 5.85647 17.1702L6.82983 18.1435C6.95157 18.2653 7.14895 18.2653 7.27068 18.1435L7.45256 17.9617C8.07947 17.3347 8.9845 17.2466 9.70121 17.5441C10.4097 17.8383 11 18.5381 11 19.4312V19.6883C11 19.8604 11.1396 20 11.3117 20H12.6883C12.8605 20 13 19.8604 13 19.6883V19.4312C13 18.5381 13.5903 17.8383 14.2988 17.5441C15.0155 17.2466 15.9206 17.3347 16.5475 17.9617L16.7293 18.1435C16.8511 18.2653 17.0484 18.2653 17.1702 18.1435L18.1435 17.1701C18.2653 17.0484 18.2653 16.851 18.1435 16.7293L17.9617 16.5474C17.3348 15.9205 17.2466 15.0155 17.5442 14.2988C17.8383 13.5903 18.5381 13 19.4312 13H19.6883C19.8604 13 20 12.8604 20 12.6883V11.3117C20 11.1396 19.8604 11 19.6883 11H19.4312C18.5381 11 17.8383 10.4097 17.5441 9.70121C17.2466 8.98449 17.3348 8.07947 17.9617 7.45255L18.1435 7.27068C18.2653 7.14894 18.2653 6.95157 18.1435 6.82983L17.1702 5.85646C17.0484 5.73473 16.8511 5.73473 16.7293 5.85646L16.5475 6.03834C15.9205 6.66525 15.0155 6.75342 14.2988 6.45586C13.5903 6.16172 13 5.46192 13 4.56876V4.3117C13 4.13955 12.8605 4 12.6883 4H11.3117C11.1396 4 11 4.13955 11 4.3117Z" fill="currentColor"/>
</svg>

<svg xmlns="http://www.w3.org/2000/svg" width="24" height="24" fill="currentColor" viewBox="0 0 24 24">
  <path d="M16 12a4 4 0 1 1-8 0 4 4 0 0 1 8 0Zm-2 0a2 2 0 1 0-4 0 2 2 0 0 0 4 0Z"/>
  <path d="M11.312 2h1.376A2.312 2.312 0 0 1 15 4.312v.247l.002.003c.01.014.031.033.064.047.03.013.056.013.07.01h.002l.177-.177a2.312 2.312 0 0 1 3.27 0l.973.974a2.312 2.312 0 0 1 0 3.269l-.177.177v.003a.134.134 0 0 0 .01.07.153.153 0 0 0 .047.063l.003.002h.247A2.312 2.312 0 0 1 22 11.312v1.376A2.312 2.312 0 0 1 19.688 15h-.247l-.003.002a.152.152 0 0 0-.047.064.134.134 0 0 0-.01.07v.002l.177.177a2.312 2.312 0 0 1 0 3.27l-.974.973a2.312 2.312 0 0 1-3.269 0l-.177-.177h-.003a.134.134 0 0 0-.07.01.152.152 0 0 0-.063.047l-.002.003v.247A2.312 2.312 0 0 1 12.688 22h-1.376A2.312 2.312 0 0 1 9 19.688v-.247l-.002-.003a.153.153 0 0 0-.064-.047.134.134 0 0 0-.07-.01h-.002l-.177.177a2.312 2.312 0 0 1-3.27 0l-.973-.974a2.312 2.312 0 0 1 0-3.269l.177-.177v-.003a.135.135 0 0 0-.01-.07.152.152 0 0 0-.047-.063L4.559 15h-.247A2.312 2.312 0 0 1 2 12.688v-1.376A2.312 2.312 0 0 1 4.312 9h.247l.003-.002a.153.153 0 0 0 .047-.064.135.135 0 0 0 .01-.07v-.002l-.177-.177a2.312 2.312 0 0 1 0-3.27l.974-.973a2.312 2.312 0 0 1 3.269 0l.177.177h.003a.135.135 0 0 0 .07-.01.153.153 0 0 0 .063-.047L9 4.559v-.247A2.312 2.312 0 0 1 11.312 2ZM11 4.312v.257c0 .893-.59 1.593-1.299 1.887-.716.297-1.622.21-2.248-.418l-.182-.182a.312.312 0 0 0-.441 0l-.974.974a.312.312 0 0 0 0 .44l.182.183c.627.626.715 1.531.418 2.248C6.162 10.41 5.462 11 4.569 11h-.257a.312.312 0 0 0-.312.312v1.376c0 .172.14.312.312.312h.257c.893 0 1.593.59 1.887 1.299.297.716.21 1.622-.418 2.248l-.182.182a.312.312 0 0 0 0 .441l.974.973a.31.31 0 0 0 .44 0l.183-.181c.626-.627 1.532-.715 2.248-.418.709.294 1.299.994 1.299 1.887v.257c0 .172.14.312.312.312h1.376c.172 0 .312-.14.312-.312v-.257c0-.893.59-1.593 1.299-1.887.716-.297 1.622-.21 2.248.418l.182.181c.122.122.32.122.441 0l.973-.973a.312.312 0 0 0 0-.44l-.181-.183c-.627-.627-.715-1.532-.418-2.248.294-.709.994-1.299 1.887-1.299h.257c.172 0 .312-.14.312-.312v-1.376a.312.312 0 0 0-.312-.312h-.257c-.893 0-1.593-.59-1.887-1.299-.297-.717-.21-1.622.418-2.248l.181-.182a.312.312 0 0 0 0-.441l-.973-.974a.312.312 0 0 0-.44 0l-.183.182c-.627.627-1.532.715-2.248.418C13.59 6.162 13 5.462 13 4.569v-.257A.312.312 0 0 0 12.688 4h-1.376a.312.312 0 0 0-.312.312Z"/>
</svg>
